src/static/footer/Avatar-Daniel.svg

<svg width="450px" height="480px" viewBox="0 0 264 280" version="1.1" xmlns="http://www.w3.org/2000/svg" xmlns:xlink="http://www.w3.org/1999/xlink"><desc>Avatar Maker</desc><defs><circle id="path-1" cx="120" cy="120" r="120"></circle><path d="M12,160 C12,226.27417 65.72583,280 132,280 C198.27417,280 252,226.27417 252,160 L264,160 L264,-1.42108547e-14 L-3.19744231e-14,-1.42108547e-14 L-3.19744231e-14,160 L12,160 Z" id="path-3"></path><path d="M124,144.610951 L124,163 L128,163 L128,163 C167.764502,163 200,195.235498 200,235 L200,244 L0,244 L0,235 C-4.86974701e-15,195.235498 32.235498,163 72,163 L72,163 L76,163 L76,144.610951 C58.7626345,136.422372 46.3722246,119.687011 44.3051388,99.8812385 C38.4803105,99.0577866 34,94.0521096 34,88 L34,74 C34,68.0540074 38.3245733,63.1180731 44,62.1659169 L44,56 L44,56 C44,25.072054 69.072054,5.68137151e-15 100,0 L100,0 L100,0 C130.927946,-5.68137151e-15 156,25.072054 156,56 L156,62.1659169 C161.675427,63.1180731 166,68.0540074 166,74 L166,88 C166,94.0521096 161.51969,99.0577866 155.694861,99.8812385 C153.627775,119.687011 141.237365,136.422372 124,144.610951 Z" id="path-5"></path></defs><g id="avatarmaker" stroke="none" stroke-width="1" fill="none" fill-rule="evenodd"><g transform="translate(-825.000000, -1100.000000)" id="avatarmaker/Circle"><g transform="translate(825.000000, 1100.000000)"><g id="Circle" stroke-width="1" fill-rule="evenodd" transform="translate(12.000000, 40.000000)"><mask id="mask-2" fill="white"><use xlink:href="#path-1"></use></mask><use id="Circle-Background" fill="#E6E6E6" xlink:href="#path-1"></use><g id="ColorPaletteBlue01" mask="url(#mask-2)" fill="#ff6569" style="fill: rgb(255, 101, 105);"><rect id="🖍Color" x="0" y="0" width="240" height="240"></rect></g></g><mask id="mask-4" fill="white"><use xlink:href="#path-3"></use></mask><g id="Mask"></g><g id="avatarmaker" stroke-width="1" fill-rule="evenodd" mask="url(#mask-4)"><g id="Body" transform="translate(32.000000, 36.000000)"><mask id="mask-6" fill="white"><use xlink:href="#path-5"></use></mask><use fill="#D0C6AC" xlink:href="#path-5"></use><g id="Skin/👶🏽-03-Brown" mask="url(#mask-6)" fill="#EDB98A"><g transform="translate(-32.000000, 0.000000)" id="Color"><rect x="0" y="0" width="264" height="244"></rect></g></g><path d="M156,79 L156,102 C156,132.927946 130.927946,158 100,158 C69.072054,158 44,132.927946 44,102 L44,79 L44,94 C44,124.927946 69.072054,150 100,150 C130.927946,150 156,124.927946 156,94 L156,79 Z" id="Neck-Shadow" fill-opacity="0.100000001" fill="#000000" mask="url(#mask-6)"></path></g><g id="Clothing/Blazer-+-Sweater" transform="translate(0.000000, 170.000000)"><defs><path d="M105.192402,29.0517235 L104,29.0517235 L104,29.0517235 C64.235498,29.0517235 32,61.2872215 32,101.051724 L32,110 L232,110 L232,101.051724 C232,61.2872215 199.764502,29.0517235 160,29.0517235 L160,29.0517235 L158.807598,29.0517235 C158.934638,30.0353144 159,31.0364513 159,32.0517235 C159,45.8588423 146.911688,57.0517235 132,57.0517235 C117.088312,57.0517235 105,45.8588423 105,32.0517235 C105,31.0364513 105.065362,30.0353144 105.192402,29.0517235 Z" id="react-path-1823"></path></defs><mask id="react-mask-1824" fill="white"><use xlink:href="#react-path-1823"></use></mask><use id="Clothes" fill="#E6E6E6" fill-rule="evenodd" xlink:href="#react-path-1823"></use><g id="Color/Palette/Black" mask="url(#react-mask-1824)" fill-rule="evenodd" fill="#262E33"><rect id="🖍Color" x="0" y="0" width="264" height="110"></rect></g><g id="Blazer" stroke-width="1" fill-rule="evenodd" transform="translate(32.000000, 28.000000)"><path d="M68.784807,1.12222847 C30.512317,2.80409739 1.24427139e-14,34.3646437 0,73.0517235 L0,82 L69.3616767,82 C65.9607412,69.9199941 64,55.7087296 64,40.5 C64,26.1729736 65.7399891,12.7311115 68.784807,1.12222847 Z M131.638323,82 L200,82 L200,73.0517235 C200,34.7067641 170.024954,3.36285166 132.228719,1.17384225 C135.265163,12.7709464 137,26.1942016 137,40.5 C137,55.7087296 135.039259,69.9199941 131.638323,82 Z" id="Saco" fill="#3A4C5A"></path><path d="M149,58 L158.555853,50.83311 L158.555853,50.83311 C159.998897,49.7508275 161.987779,49.7682725 163.411616,50.8757011 L170,56 L149,58 Z" id="Pocket-hanky" fill="#E6E6E6"></path><path d="M69,1.13686838e-13 C65,19.3333333 66.6666667,46.6666667 74,82 L58,82 L44,46 L50,37 L44,31 L63,1 C65.027659,0.369238637 67.027659,0.0359053037 69,1.13686838e-13 Z" id="Wing" fill="#2F4351"></path><path d="M151,1.13686838e-13 C147,19.3333333 148.666667,46.6666667 156,82 L140,82 L126,46 L132,37 L126,31 L145,1 C147.027659,0.369238637 149.027659,0.0359053037 151,1.13686838e-13 Z" id="Wing" fill="#2F4351" transform="translate(141.000000, 41.000000) scale(-1, 1) translate(-141.000000, -41.000000) "></path></g><path d="M156,21.5390062 C162.772319,26.1359565 167,32.6563196 167,39.8878801 C167,47.2887711 162.572015,53.9447688 155.520105,58.5564942 L149.57933,53.8764929 L145,54.207887 L146,51.0567821 L145.922229,50.995516 C152.022491,47.8530505 156,42.7003578 156,36.8768102 L156,21.5390062 Z M108,21.5390062 C101.227681,26.1359565 97,32.6563196 97,39.8878801 C97,47.2887711 101.427985,53.9447688 108.479895,58.5564942 L114.42067,53.8764929 L119,54.207887 L118,51.0567821 L118.077771,50.995516 C111.977509,47.8530505 108,42.7003578 108,36.8768102 L108,21.5390062 Z" id="Collar" fill="#F2F2F2" fill-rule="evenodd"></path></g><g id="Face" transform="translate(76.000000, 82.000000)" fill="#000000"><g id="Mouth/Default" transform="translate(2.000000, 52.000000)" fill-opacity="0.699999988"><path d="M40,15 C40,22.7319865 46.2680135,29 54,29 L54,29 C61.7319865,29 68,22.7319865 68,15" id="Mouth"></path></g><g id="Nose/Default" transform="translate(28.000000, 40.000000)" fill-opacity="0.16"><path d="M16,8 C16,12.418278 21.372583,16 28,16 L28,16 C34.627417,16 40,12.418278 40,8" id="Nose"></path></g><g id="Eyes/Side-😒" transform="translate(0.000000, 8.000000)" fill-opacity="0.599999964"><path d="M27.2409577,20.3455337 C26.462715,21.3574913 26,22.6247092 26,24 C26,27.3137085 28.6862915,30 32,30 C35.3137085,30 38,27.3137085 38,24 C38,23.7097898 37.9793961,23.4243919 37.9395713,23.1451894 C37.9474218,22.9227843 37.9097825,22.6709538 37.8153518,22.4071242 C37.7703692,22.2814477 37.7221152,22.1572512 37.6706873,22.0345685 C37.3370199,21.0717264 36.7650456,20.2202109 36.0253277,19.550585 C33.898886,17.3173253 30.5064735,16 26.9975803,16 C22.1644225,16 18.006676,18.648508 16.1601674,22.4473116 C15.6201012,23.5583844 16.5467928,24.3002944 17.4375392,23.5716412 C19.8737584,21.5787519 23.2572061,20.3437884 26.9975803,20.3437884 C27.0788767,20.3437884 27.1600045,20.3443718 27.2409577,20.3455337 Z" id="Eye"></path><path d="M85.2409577,20.3455337 C84.462715,21.3574913 84,22.6247092 84,24 C84,27.3137085 86.6862915,30 90,30 C93.3137085,30 96,27.3137085 96,24 C96,23.7097898 95.9793961,23.4243919 95.9395713,23.1451894 C95.9474218,22.9227843 95.9097825,22.6709538 95.8153518,22.4071242 C95.7703692,22.2814477 95.7221152,22.1572512 95.6706873,22.0345685 C95.3370199,21.0717264 94.7650456,20.2202109 94.0253277,19.550585 C91.898886,17.3173253 88.5064735,16 84.9975803,16 C80.1644225,16 76.006676,18.648508 74.1601674,22.4473116 C73.6201012,23.5583844 74.5467928,24.3002944 75.4375392,23.5716412 C77.8737584,21.5787519 81.2572061,20.3437884 84.9975803,20.3437884 C85.0788767,20.3437884 85.1600045,20.3443718 85.2409577,20.3455337 Z" id="Eye"></path></g><g id="Eyebrow/Natural/Raised-Excited-Natural" fill-opacity="0.599999964"><path d="M22.7663531,1.57844898 L23.6772984,1.17582144 C28.9190996,-0.905265751 36.8645466,-0.0328729562 41.7227321,2.29911638 C42.2897848,2.57148957 41.9021563,3.4519421 41.3211012,3.40711006 C26.4021788,2.25602197 16.3582869,11.5525942 12.9460869,17.8470939 C12.8449215,18.0337142 12.5391523,18.05489 12.4635344,17.8808353 C10.156283,12.5620676 16.9134476,3.89614725 22.7663531,1.57844898 Z" id="Eye-Browse-Reddit"></path><path d="M80.7663531,1.57844898 L81.6772984,1.17582144 C86.9190996,-0.905265751 94.8645466,-0.0328729562 99.7227321,2.29911638 C100.289785,2.57148957 99.9021563,3.4519421 99.3211012,3.40711006 C84.4021788,2.25602197 74.3582869,11.5525942 70.9460869,17.8470939 C70.8449215,18.0337142 70.5391523,18.05489 70.4635344,17.8808353 C68.156283,12.5620676 74.9134476,3.89614725 80.7663531,1.57844898 Z" id="Eye-Browse-Reddit" transform="translate(85.000000, 9.000000) scale(-1, 1) translate(-85.000000, -9.000000) "></path></g></g><g id="Top" stroke-width="1" fill-rule="evenodd"><defs><rect id="react-path-1783" x="0" y="0" width="264" height="280"></rect><path d="M59,102.340285 C59,118.921045 59,145.474283 59,182 C59,186.418278 62.581722,190 67,190 L109,190 L109,180.610951 C91.4692178,172.282984 78.9518066,155.114792 77.2085808,134.867187 C71.4308707,134.002364 67,129.018625 67,123 L67,110 C67,106.509412 68.4903619,103.366917 70.8694649,101.174135 C82.4088376,98.5552525 94.9706808,93.6376395 107.341516,86.4953343 C119.473269,79.4910638 129.843979,71.2579416 137.820938,62.752196 C134.394107,70.6604321 130.244513,77.5880409 125.372156,83.5350224 C138.047336,78.0120855 146.677812,69.1324394 151.263585,56.8960843 C151.64142,57.8180234 152.034942,58.738913 152.444252,59.6582378 C162.699828,82.6926393 180.317578,99.018563 198.205873,104.403108 C198.718861,106.513486 199,108.48395 199,110 L199,123 C199,129.018625 194.569129,134.002364 188.791419,134.867187 C187.048193,155.114792 174.530782,172.282984 157,180.610951 L157,190 L175,190 C192.673112,190 207,175.673112 207,158 C207,133.944314 207,115.902549 207,103.874706 C207,103.807916 206.990567,103.721208 206.971823,103.615272 C206.82774,91.3536714 206.623862,84.2237818 206.360189,82.2256031 C201.576875,45.9764505 170.555563,18 133,18 C96.9151011,18 66.8627142,43.8282542 60,78 C54.4771525,78 50,83.5964406 50,90.5 C50,95.0507583 51.6949619,99.1431718 54.8534901,101.273154 C55.7582038,101.883256 57.323834,102.197638 58.9999994,102.340287 Z" id="react-path-1784"></path></defs><mask id="react-mask-1781" fill="white"><use xlink:href="#react-path-1783"></use></mask><g id="Mask"></g><g id="Top/Long-Hair/Long-but-not-too-long" mask="url(#react-mask-1781)"><g transform="translate(-1.000000, 0.000000)"><g id="Behind" stroke-width="1" fill-rule="evenodd"><mask id="react-mask-1782" fill="white"><use xlink:href="#react-path-1784"></use></mask><use id="Combined-Shape" fill="#944F23" xlink:href="#react-path-1784"></use><g id="Skin/👶🏽-03-Brown" mask="url(#react-mask-1782)" fill="#2c1b18"><g transform="translate(0.000000, 0.000000) " id="Color"><rect x="0" y="0" width="264" height="280"></rect></g></g></g><g id="Top" opacity="0.439990942" stroke-width="1" fill-rule="evenodd" transform="translate(50.000000, 18.000000)" fill-opacity="0.159999996"><path d="M11.8989604,84.7749122 C25.7109099,83.0145308 41.6792969,77.5379209 57.3415164,68.4953343 C69.4732686,61.4910638 79.8439791,53.2579416 87.8209384,44.752196 C84.3941075,52.6604321 80.2445133,59.5880409 75.3721558,65.5350224 C88.0473359,60.0120855 96.6778122,51.1324394 101.263585,38.8960843 C101.64142,39.8180234 102.034942,40.738913 102.444252,41.6582378 C114.38223,68.4713761 136.296003,86.1944823 157,88.1510343 L157,88.1510343 L157,74 C157,33.1309285 123.869071,-7.50752664e-15 83,0 C46.9151011,6.62868839e-15 16.8627142,25.8282542 10.3212729,60.0063288 C10.214595,60.0021202 10.1074956,60 10,60 C4.4771525,60 0,65.5964406 0,72.5 C0,78.9816827 3.9466744,84.3111215 8.99999442,84.9382803 L8.99999434,85.0927525 C9.31629342,85.0638362 9.63387297,85.0328725 9.95270131,84.9998631 C9.96845895,84.9999543 9.98422521,85 10,85 C10.6492988,85 11.2841443,84.9226474 11.8989604,84.7749122 Z" id="Combined-Shape" fill="#FFFFFF"></path></g><g id="Top/_Resources/Prescription-02" fill="none" transform="translate(62.000000, 85.000000)" stroke-width="1"><defs><filter x="-0.8%" y="-2.4%" width="101.5%" height="109.8%" filterUnits="objectBoundingBox" id="react-filter-1802"><feOffset dx="0" dy="2" in="SourceAlpha" result="shadowOffsetOuter1"></feOffset><feColorMatrix values="0 0 0 0 0   0 0 0 0 0   0 0 0 0 0  0 0 0 0.2 0" type="matrix" in="shadowOffsetOuter1" result="shadowMatrixOuter1"></feColorMatrix><feMerge><feMergeNode in="shadowMatrixOuter1"></feMergeNode><feMergeNode in="SourceGraphic"></feMergeNode></feMerge></filter></defs><g id="Wayfarers" filter="url(#react-filter-1802)" transform="translate(6.000000, 7.000000)" fill="#252C2F"><path d="M34,41 L31.2421498,41 C17.3147125,41 9,33.3359286 9,20.5 C9,10.127 10.8170058,0 32.5299306,0 L35.4700694,0 C57.1829942,0 59,10.127 59,20.5 C59,32.5686429 48.7212748,41 34,41 Z M32.3853606,6 C13,6 13,12.8410159 13,21.5015498 C13,28.5719428 16.116254,37 30.9709365,37 L34,37 C46.3649085,37 55,30.6270373 55,21.5015498 C55,12.8410159 55,6 35.6146394,6 L32.3853606,6 Z" id="Left" fill-rule="nonzero"></path><path d="M96,41 L93.2421498,41 C79.3147125,41 71,33.3359286 71,20.5 C71,10.127 72.8170058,0 94.5299306,0 L97.4700694,0 C119.182994,0 121,10.127 121,20.5 C121,32.5686429 110.721275,41 96,41 Z M94.3853606,6 C75,6 75,12.8410159 75,21.5015498 C75,28.5719428 78.1194833,37 92.9709365,37 L96,37 C108.364909,37 117,30.6270373 117,21.5015498 C117,12.8410159 117,6 97.6146394,6 L94.3853606,6 Z" id="Right" fill-rule="nonzero"></path><path d="M2.95454545,5.77156439 C3.64590909,5.09629136 11.2095455,0 32.5,0 C50.3513636,0 54.1302273,1.85267217 59.8502273,4.6518809 L60.2689233,4.85850899 C60.6666014,4.99901896 62.7002447,5.68982981 65.0790606,5.76579519 C67.2462948,5.67278567 69.1000195,5.08540191 69.641698,4.89719767 C76.1703915,1.7220864 82.5610971,0 97.5,0 C118.790455,0 126.354091,5.09629136 127.045455,5.77156439 C128.679318,5.77156439 130,7.06150904 130,8.65734659 L130,11.5431288 C130,13.1389663 128.679318,14.428911 127.045455,14.428911 C127.045455,14.428911 120.143997,14.428911 120.143997,17.3146932 C120.143997,20.2004754 118.181818,13.1389663 118.181818,11.5431288 L118.181818,8.73240251 C114.578575,7.35340151 108.128411,4.78617535 97.5,4.78617535 C85.6584651,4.78617535 79.7610984,6.88602813 74.7022935,8.97112368 L74.7588636,9.10752861 L74.7563667,11.0937608 L72.5391666,16.4436339 L69.8004908,15.3608351 C69.5558969,15.2641292 69.0281396,15.090392 68.2963505,14.9099044 C66.256272,14.4067419 64.1589087,14.253569 62.3040836,14.6343084 C61.6235903,14.7739931 60.9922286,14.9836085 60.4128127,15.266732 L57.7704824,16.5578701 L55.1266751,11.3962031 L55.2440909,9.10175705 L55.3248203,8.90683855 C50.9620526,6.87386374 46.9392639,4.78617535 32.5,4.78617535 C21.8721459,4.78617535 15.422131,7.3524397 11.8181818,8.7314671 L11.8181818,11.5431288 C11.8181818,13.1389663 8.86363636,20.2004754 8.86363636,17.3146932 C8.86363636,14.428911 2.95454545,14.428911 2.95454545,14.428911 C1.32363636,14.428911 0,13.1389663 0,11.5431288 L0,8.65734659 C0,7.06150904 1.32363636,5.77156439 2.95454545,5.77156439 Z" id="Stuff" fill-rule="nonzero"></path></g></g></g></g></g></g></g></g></g></svg>

<svg width="450" height="480" viewBox="0 0 264 280" xmlns="http://www.w3.org/2000/svg" xmlns:xlink="http://www.w3.org/1999/xlink"><defs><path d="M12 160c0 66.274 53.726 120 120 120s120-53.726 120-120h12V0H0v160h12Z" id="c"/><path d="M124 144.611V163h4c39.765 0 72 32.235 72 72v9H0v-9c0-39.765 32.235-72 72-72h4v-18.389c-17.237-8.189-29.628-24.924-31.695-44.73C38.48 99.058 34 94.052 34 88V74c0-5.946 4.325-10.882 10-11.834V56c0-30.928 25.072-56 56-56s56 25.072 56 56v6.166c5.675.952 10 5.888 10 11.834v14c0 6.052-4.48 11.058-10.305 11.881-2.067 19.806-14.458 36.541-31.695 44.73Z" id="e"/><circle id="a" cx="120" cy="120" r="120"/></defs><g fill="none" fill-rule="evenodd"><g transform="translate(12 40)"><mask id="b" fill="#fff"><use xlink:href="#a"/></mask><use fill="#E6E6E6" xlink:href="#a"/><g mask="url(#b)" fill="#ff6569" style="fill:#ff6569"><path d="M0 0h240v240H0z"/></g></g><mask id="d" fill="#fff"><use xlink:href="#c"/></mask><g mask="url(#d)"><g transform="translate(32 36)"><mask id="f" fill="#fff"><use xlink:href="#e"/></mask><use fill="#D0C6AC" xlink:href="#e"/><g mask="url(#f)" fill="#EDB98A"><path d="M-32 0h264v244H-32z"/></g><path d="M156 79v23c0 30.928-25.072 56-56 56s-56-25.072-56-56V79v15c0 30.928 25.072 56 56 56s56-25.072 56-56V79Z" fill-opacity=".1" fill="#000" mask="url(#f)"/></g><g transform="translate(0 170)"><defs><path d="M105.192 29.052H104c-39.765 0-72 32.235-72 72V110h200v-8.948c0-39.765-32.235-72-72-72h-1.192c.127.983.192 1.984.192 3 0 13.807-12.088 25-27 25s-27-11.193-27-25c0-1.016.065-2.017.192-3Z" id="g"/></defs><mask id="h" fill="#fff"><use xlink:href="#g"/></mask><use fill="#E6E6E6" xlink:href="#g"/><g mask="url(#h)" fill="#262E33"><path d="M0 0h264v110H0z"/></g><path d="M100.785 29.122C62.512 30.804 32 62.365 32 101.052V110h69.362C97.96 97.92 96 83.709 96 68.5c0-14.327 1.74-27.769 4.785-39.378ZM163.638 110H232v-8.948c0-38.345-29.975-69.69-67.771-71.878C167.265 40.77 169 54.194 169 68.5c0 15.209-1.96 29.42-5.362 41.5Z" fill="#3A4C5A"/><path d="m181 86 9.556-7.167a4 4 0 0 1 4.856.043L202 84l-21 2Z" fill="#E6E6E6"/><path d="M101 28c-4 19.333-2.333 46.667 5 82H90L76 74l6-9-6-6 19-30c2.028-.63 4.028-.964 6-1ZM163 28c4 19.333 2.333 46.667-5 82h16l14-36-6-9 6-6-19-30c-2.028-.63-4.028-.964-6-1Z" fill="#2F4351"/><path d="M156 21.539c6.772 4.597 11 11.117 11 18.349 0 7.4-4.428 14.057-11.48 18.668l-5.94-4.68-4.58.332 1-3.151-.078-.061C152.022 47.853 156 42.7 156 36.876V21.54Zm-48 0c-6.772 4.597-11 11.117-11 18.349 0 7.4 4.428 14.057 11.48 18.668l5.94-4.68 4.58.332-1-3.151.078-.061C111.978 47.853 108 42.7 108 36.876V21.54Z" fill="#F2F2F2"/></g><g fill="#000"><path d="M118 149c0 7.732 6.268 14 14 14s14-6.268 14-14" fill-opacity=".7"/><path d="M120 130c0 4.418 5.373 8 12 8s12-3.582 12-8" fill-opacity=".16"/><g fill-opacity=".6"><path d="M103.241 110.346a6 6 0 1 0 10.699 2.8 1.998 1.998 0 0 0-.125-.739 7.509 7.509 0 0 0-.144-.372 6.007 6.007 0 0 0-1.646-2.484c-2.126-2.234-5.519-3.551-9.027-3.551-4.834 0-8.991 2.649-10.838 6.447-.54 1.111.387 1.853 1.278 1.125 2.436-1.993 5.82-3.228 9.56-3.228.08 0 .162 0 .243.002ZM161.241 110.346a6 6 0 1 0 10.699 2.8 1.998 1.998 0 0 0-.125-.739 7.509 7.509 0 0 0-.144-.372 6.007 6.007 0 0 0-1.646-2.484c-2.126-2.234-5.519-3.551-9.027-3.551-4.834 0-8.991 2.649-10.838 6.447-.54 1.111.387 1.853 1.278 1.125 2.436-1.993 5.82-3.228 9.56-3.228.08 0 .162 0 .243.002Z"/></g><g fill-opacity=".6"><path d="m98.766 83.578.911-.402c5.242-2.081 13.188-1.209 18.046 1.123.567.272.18 1.153-.402 1.108-14.919-1.151-24.963 8.146-28.375 14.44-.101.187-.407.208-.482.034-2.308-5.319 4.45-13.985 10.302-16.303ZM165.234 83.578l-.911-.402c-5.242-2.081-13.188-1.209-18.046 1.123-.567.272-.18 1.153.402 1.108 14.919-1.151 24.963 8.146 28.375 14.44.101.187.407.208.482.034 2.308-5.319-4.45-13.985-10.302-16.303Z"/></g></g><defs><path id="i" d="M0 0h264v280H0z"/><path d="M59 102.34V182a8 8 0 0 0 8 8h42v-9.389c-17.53-8.328-30.048-25.496-31.791-45.744C71.43 134.002 67 129.02 67 123v-13c0-3.49 1.49-6.633 3.87-8.826 11.539-2.619 24.1-7.536 36.472-14.679 12.131-7.004 22.502-15.237 30.479-23.743-3.427 7.908-7.576 14.836-12.449 20.783 12.675-5.523 21.306-14.403 25.892-26.639.377.922.77 1.843 1.18 2.762 10.256 23.035 27.874 39.36 45.762 44.745.513 2.11.794 4.08.794 5.597v13c0 6.019-4.43 11.002-10.209 11.867-1.743 20.248-14.26 37.416-31.791 45.744V190h18c17.673 0 32-14.327 32-32v-54.125c0-.067-.01-.154-.028-.26-.144-12.261-.348-19.391-.612-21.39C201.577 45.977 170.556 18 133 18c-36.085 0-66.137 25.828-73 60-5.523 0-10 5.596-10 12.5 0 4.55 1.695 8.643 4.853 10.773.905.61 2.47.925 4.147 1.067Z" id="k"/></defs><mask id="j" fill="#fff"><use xlink:href="#i"/></mask><g mask="url(#j)"><g transform="translate(-1)"><mask id="l" fill="#fff"><use xlink:href="#k"/></mask><use fill="#944F23" xlink:href="#k"/><g mask="url(#l)" fill="#2c1b18"><path d="M0 0h264v280H0z"/></g></g><path d="M60.899 102.775c13.812-1.76 29.78-7.237 45.443-16.28 12.131-7.004 22.502-15.237 30.479-23.743-3.427 7.908-7.576 14.836-12.449 20.783 12.675-5.523 21.306-14.403 25.892-26.639.377.922.77 1.843 1.18 2.762 11.938 26.813 33.852 44.536 54.556 46.493V92c0-40.87-33.13-74-74-74-36.085 0-66.137 25.828-72.679 60.006A8.15 8.15 0 0 0 59 78c-5.523 0-10 5.596-10 12.5 0 6.482 3.947 11.811 9 12.438v.155c.316-.03.634-.06.953-.093a8.172 8.172 0 0 0 1.946-.225Z" fill="#FFF" opacity=".44" fill-opacity=".16"/><g transform="translate(61 85)"><defs><filter x="-.8%" y="-2.4%" width="101.5%" height="109.8%" filterUnits="objectBoundingBox" id="m"><feOffset dy="2" in="SourceAlpha" result="shadowOffsetOuter1"/><feColorMatrix values="0 0 0 0 0 0 0 0 0 0 0 0 0 0 0 0 0 0 0.2 0" in="shadowOffsetOuter1" result="shadowMatrixOuter1"/><feMerge><feMergeNode in="shadowMatrixOuter1"/><feMergeNode in="SourceGraphic"/></feMerge></filter></defs><g filter="url(#m)" transform="translate(6 7)" fill="#252C2F" fill-rule="nonzero"><path d="M34 41h-2.758C17.315 41 9 33.336 9 20.5 9 10.127 10.817 0 32.53 0h2.94C57.183 0 59 10.127 59 20.5 59 32.569 48.721 41 34 41ZM32.385 6C13 6 13 12.841 13 21.502 13 28.572 16.116 37 30.97 37H34c12.365 0 21-6.373 21-15.498C55 12.84 55 6 35.615 6h-3.23ZM96 41h-2.758C79.315 41 71 33.336 71 20.5 71 10.127 72.817 0 94.53 0h2.94C119.183 0 121 10.127 121 20.5 121 32.569 110.721 41 96 41ZM94.385 6C75 6 75 12.841 75 21.502 75 28.572 78.12 37 92.97 37H96c12.365 0 21-6.373 21-15.498C117 12.84 117 6 97.615 6h-3.23Z"/><path d="M2.955 5.772C3.645 5.096 11.21 0 32.5 0c17.851 0 21.63 1.853 27.35 4.652l.419.207c.398.14 2.431.83 4.81.907a16.998 16.998 0 0 0 4.563-.869C76.17 1.722 82.562 0 97.5 0c21.29 0 28.854 5.096 29.545 5.772 1.634 0 2.955 1.29 2.955 2.885v2.886c0 1.596-1.32 2.886-2.955 2.886 0 0-6.901 0-6.901 2.886 0 2.885-1.962-4.176-1.962-5.772v-2.81c-3.603-1.38-10.054-3.947-20.682-3.947-11.842 0-17.739 2.1-22.798 4.185l.057.137-.003 1.986-2.217 5.35L69.8 15.36c-.244-.097-.772-.27-1.504-.451-2.04-.503-4.137-.656-5.992-.276-.68.14-1.312.35-1.891.633l-2.643 1.29-2.643-5.16.117-2.295.08-.195c-4.362-2.033-8.385-4.12-22.824-4.12-10.628 0-17.078 2.565-20.682 3.944v2.812c0 1.596-2.954 8.657-2.954 5.772 0-2.886-5.91-2.886-5.91-2.886-1.63 0-2.954-1.29-2.954-2.886V8.657c0-1.595 1.324-2.885 2.955-2.885Z"/></g></g></g></g></g></svg>
